X: 20037
T: Jimmy Duffy's
R: barndance
M: 4/4
K: Gmajor
|:BG DG B2 Bc|BA GB d2 d2|ef gd B2 cB|AG FG A2 A2|
BG DG B2 Bc|BA GB d2 d2|ef gd B2 cB|1 AG FA G2 G2:|2 AG FA G2 Bd||
ga gd B2 B2|BA GB d2 d2|ef gd B2 cB|AG FG AB cA|
BG DG B2 Bc|BA GB d2 d2|ef gd B2 cB|1 AG FA G2 G2:|2 AG FA G2 Bc||

